assets/icon-stopwatch.svg

<svg
  class="icon icon-accordion icon-stopwatch"
  aria-hidden="true"
  focusable="false"
  xmlns="http://www.w3.org/2000/svg"
  width="20"
  height="20"
  viewBox="0 0 20 20"
>
  <path d="M18.7014 11.3962C18.7014 16.075 14.9085 19.8679 10.2297 19.8679C5.55095 19.8679 1.75806 16.075 1.75806 11.3962C1.75806 6.71746 5.55095 2.92457 10.2297 2.92457C14.9085 2.92457 18.7014 6.71746 18.7014 11.3962ZM10.2297 18.8679C14.3562 18.8679 17.7014 15.5227 17.7014 11.3962C17.7014 7.26974 14.3562 3.92457 10.2297 3.92457C6.10323 3.92457 2.75806 7.26974 2.75806 11.3962C2.75806 15.5227 6.10323 18.8679 10.2297 18.8679Z" />
  <path d="M10.7203 1.7782H9.7392C9.18691 1.7782 8.7392 2.22591 8.7392 2.7782V2.92456H11.7203V2.7782C11.7203 2.22591 11.2726 1.7782 10.7203 1.7782ZM9.7392 0.778198C8.63463 0.778198 7.7392 1.67363 7.7392 2.7782V3.92456H12.7203V2.7782C12.7203 1.67363 11.8249 0.778198 10.7203 0.778198H9.7392Z" fill-rule="evenodd"/>
  <path d="M8.98448 11.3963C8.98448 10.7086 9.54201 10.1511 10.2298 10.1511C10.9175 10.1511 11.475 10.7086 11.475 11.3963C11.475 12.0841 10.9175 12.6416 10.2298 12.6416C9.54201 12.6416 8.98448 12.0841 8.98448 11.3963Z" />
  <path d="M9.72974 11.3962C9.72974 11.1201 9.95359 10.8962 10.2297 10.8962H15.2108C15.487 10.8962 15.7108 11.1201 15.7108 11.3962C15.7108 11.6724 15.487 11.8962 15.2108 11.8962H10.2297C9.95359 11.8962 9.72974 11.6724 9.72974 11.3962Z" />
  <path d="M10.2297 5.91517C10.5059 5.91517 10.7297 6.13902 10.7297 6.41517V8.90572C10.7297 9.18186 10.5059 9.40572 10.2297 9.40572C9.95359 9.40572 9.72974 9.18186 9.72974 8.90572V6.41517C9.72974 6.13902 9.95359 5.91517 10.2297 5.91517Z" />
  <path d="M13.9544 7.30685C14.1497 7.50211 14.1497 7.8187 13.9544 8.01396L12.1934 9.77505C11.9981 9.97031 11.6815 9.97031 11.4862 9.77505C11.291 9.57978 11.291 9.2632 11.4862 9.06794L13.2473 7.30685C13.4426 7.11159 13.7592 7.11159 13.9544 7.30685Z" />
</svg>

<svg xmlns="http://www.w3.org/2000/svg" class="icon icon-accordion icon-stopwatch" viewBox="0 0 20 20"><path d="M18.701 11.396a8.472 8.472 0 1 1-16.943 0 8.472 8.472 0 0 1 16.943 0m-8.471 7.472a7.472 7.472 0 1 0 0-14.944 7.472 7.472 0 0 0 0 14.944"/><path fill-rule="evenodd" d="M10.72 1.778h-.98a1 1 0 0 0-1 1v.147h2.98v-.147a1 1 0 0 0-1-1m-.98-1a2 2 0 0 0-2 2v1.147h4.98V2.778a2 2 0 0 0-2-2z"/><path d="M8.984 11.396a1.245 1.245 0 1 1 2.491 0 1.245 1.245 0 0 1-2.49 0"/><path d="M9.73 11.396a.5.5 0 0 1 .5-.5h4.98a.5.5 0 1 1 0 1h-4.98a.5.5 0 0 1-.5-.5m.5-5.481a.5.5 0 0 1 .5.5v2.49a.5.5 0 1 1-1 0v-2.49a.5.5 0 0 1 .5-.5m3.724 1.392a.5.5 0 0 1 0 .707l-1.76 1.761a.5.5 0 0 1-.708-.707l1.761-1.761a.5.5 0 0 1 .707 0"/></svg>
